src/icon/animals/hippo.svg

<svg enable-background="new 0 0 24 24" viewBox="0 0 24 24" xmlns="http://www.w3.org/2000/svg"><path d="m22 5.5c0-1.9-1.6-3.5-3.5-3.5-1.6 0-2.9 1-3.3 2.5-1-.3-2.1-.5-3.2-.5s-2.2.2-3.2.5c-.4-1.5-1.7-2.5-3.3-2.5-1.9 0-3.5 1.6-3.5 3.5 0 1.2.6 2.2 1.5 2.8-1 1.4-1.5 3-1.5 4.7 0 2 .7 3.9 2 5.4 0-.1 0-.3 0-.4 0-3.9 3.6-7 8-7s8 3.1 8 7v.4c1.3-1.5 2-3.4 2-5.4 0-1.7-.5-3.3-1.5-4.7.9-.6 1.5-1.6 1.5-2.8zm-13 4.5c-.6 0-1-.4-1-1s.4-1 1-1 1 .4 1 1-.5 1-1 1zm6 0c-.6 0-1-.4-1-1s.4-1 1-1 1 .4 1 1-.5 1-1 1z"/><path d="m12 13c-3.3 0-6 2.2-6 5 0 1 .4 2 1 2.8 1.5.8 3.2 1.2 5 1.2s3.5-.4 4.9-1.2c.7-.8 1.1-1.7 1.1-2.8 0-2.8-2.7-5-6-5zm-3 4c-.6 0-1-.4-1-1s.4-1 1-1 1 .4 1 1-.5 1-1 1zm6 0c-.6 0-1-.4-1-1s.4-1 1-1 1 .4 1 1-.5 1-1 1z"/></svg>

<?xml version="1.0" encoding="utf-8"?>
<!-- Generator: Adobe Illustrator 18.0.0, SVG Export Plug-In . SVG Version: 6.00 Build 0)  -->
<!DOCTYPE svg PUBLIC "-//W3C//DTD SVG 1.1//EN" "http://www.w3.org/Graphics/SVG/1.1/DTD/svg11.dtd">
<svg version="1.1" id="Layer_1" xmlns="http://www.w3.org/2000/svg" xmlns:xlink="http://www.w3.org/1999/xlink" x="0px" y="0px"
	 viewBox="0 0 24 24" enable-background="new 0 0 24 24" xml:space="preserve">
<g>
	<path d="M22,5.5C22,3.6,20.4,2,18.5,2c-1.6,0-2.9,1-3.3,2.5C14.2,4.2,13.1,4,12,4S9.8,4.2,8.8,4.5C8.4,3,7.1,2,5.5,2
		C3.6,2,2,3.6,2,5.5c0,1.2,0.6,2.2,1.5,2.8C2.5,9.7,2,11.3,2,13c0,2,0.7,3.9,2,5.4c0-0.1,0-0.3,0-0.4c0-3.9,3.6-7,8-7s8,3.1,8,7
		c0,0.1,0,0.3,0,0.4c1.3-1.5,2-3.4,2-5.4c0-1.7-0.5-3.3-1.5-4.7C21.4,7.7,22,6.7,22,5.5z M9,10c-0.6,0-1-0.4-1-1s0.4-1,1-1
		s1,0.4,1,1S9.5,10,9,10z M15,10c-0.6,0-1-0.4-1-1s0.4-1,1-1s1,0.4,1,1S15.5,10,15,10z"/>
	<path d="M12,13c-3.3,0-6,2.2-6,5c0,1,0.4,2,1,2.8c1.5,0.8,3.2,1.2,5,1.2s3.5-0.4,4.9-1.2C17.6,20,18,19.1,18,18
		C18,15.2,15.3,13,12,13z M9,17c-0.6,0-1-0.4-1-1s0.4-1,1-1s1,0.4,1,1S9.5,17,9,17z M15,17c-0.6,0-1-0.4-1-1s0.4-1,1-1s1,0.4,1,1
		S15.5,17,15,17z"/>
</g>
</svg>
